assets/sponsors/justworks.svg

<?xml version="1.0" encoding="UTF-8" standalone="no"?>
<svg width="155px" height="14px" viewBox="0 0 155 14" version="1.1" xmlns="http://www.w3.org/2000/svg" xmlns:xlink="http://www.w3.org/1999/xlink" xmlns:sketch="http://www.bohemiancoding.com/sketch/ns">
    <!-- Generator: Sketch 3.3.3 (12072) - http://www.bohemiancoding.com/sketch -->
    <title>Justworks Logo</title>
    <desc>Created with Sketch.</desc>
    <defs></defs>
    <g id="Home" stroke="none" stroke-width="1" fill="none" fill-rule="evenodd" sketch:type="MSPage">
        <g id="Home-Mobile" sketch:type="MSArtboardGroup" transform="translate(-83.000000, -52.000000)" fill="#223D68">
            <g id="Mobile-Nav" sketch:type="MSLayerGroup">
                <g id="Justworks-Logo" transform="translate(83.000000, 52.000000)" sketch:type="MSShapeGroup">
                    <path d="M0.00587931034,11.8515385 L1.83737356,9.79676923 C2.59277586,10.6338974 3.32947126,11.1283846 4.25466092,11.1283846 C5.35035057,11.1283846 6.03003448,10.4626667 6.03003448,8.92141026 L6.03003448,0.341205128 L9.01351724,0.341205128 L9.01351724,9.05441026 C9.01351724,10.6338974 8.56027586,11.8131282 7.76745977,12.6125641 C6.95522414,13.4304872 5.76546552,13.8494103 4.33020115,13.8494103 C2.27190805,13.8494103 0.912183908,12.9361795 0.00587931034,11.8515385" id="Fill-1"></path>
                    <path d="M14.8039253,7.95128205 L14.8039253,0.341205128 L17.7116897,0.341205128 L17.7116897,7.87517949 C17.7116897,10.0442821 18.7883161,11.1666154 20.5635115,11.1666154 C22.3387069,11.1666154 23.4151552,10.0821538 23.4151552,7.97048718 L23.4151552,0.341205128 L26.3230977,0.341205128 L26.3230977,7.85597436 C26.3230977,11.8892308 24.075954,13.8678974 20.5257414,13.8678974 C16.9753506,13.8678974 14.8039253,11.8707436 14.8039253,7.95128205" id="Fill-2"></path>
                    <path d="M31.4138678,11.7185385 L33.1322299,9.6445641 C34.3221667,10.6338974 35.5685805,11.2619231 37.0792069,11.2619231 C38.2687874,11.2619231 38.9867759,10.7861026 38.9867759,10.0058718 L38.9867759,9.96764103 C38.9867759,9.22582051 38.5335345,8.84530769 36.3238046,8.27489744 C33.6610115,7.58997436 31.9426494,6.84815385 31.9426494,4.20323077 L31.9426494,4.16535897 C31.9426494,1.74874359 33.8689253,0.151307692 36.5694885,0.151307692 C38.495408,0.151307692 40.1385862,0.760128205 41.4796034,1.84405128 L39.9687989,4.05102564 C38.797569,3.23310256 37.6457586,2.73861538 36.5315402,2.73861538 C35.4175,2.73861538 34.8322414,3.25212821 34.8322414,3.89882051 L34.8322414,3.93705128 C34.8322414,4.81205128 35.3984368,5.09725641 37.6835287,5.68741026 C40.3652069,6.39153846 41.8760115,7.36166667 41.8760115,9.6824359 L41.8760115,9.72066667 C41.8760115,12.3650513 39.8741954,13.8494103 37.0227299,13.8494103 C35.0207356,13.8494103 33.0002126,13.1452821 31.4138678,11.7185385" id="Fill-3"></path>
                    <path d="M50.8432069,3.04302564 L46.8206897,3.04302564 L46.8206897,0.341205128 L57.7736667,0.341205128 L57.7736667,3.04302564 L53.7511494,3.04302564 L53.7511494,13.6587949 L50.8432069,13.6587949 L50.8432069,3.04302564" id="Fill-4"></path>
                    <path d="M62.0149655,0.341205128 L65.1306437,0.341205128 L67.8691552,9.35882051 L70.8341092,0.303512821 L73.3269368,0.303512821 L76.2915345,9.35882051 L79.0296897,0.341205128 L82.0701839,0.341205128 L77.5570115,13.7541026 L75.0262356,13.7541026 L72.0427529,5.04035897 L69.0587356,13.7541026 L66.5284943,13.7541026 L62.0149655,0.341205128" id="Fill-5"></path>
                    <path d="M85.9131149,7.03805128 L85.9131149,7.00035897 C85.9131149,3.21389744 88.8782471,0.112897436 92.9572414,0.112897436 C97.0364138,0.112897436 99.9632414,3.17602564 99.9632414,6.96194872 L99.9632414,7.00035897 C99.9632414,10.7861026 96.9986437,13.8871026 92.9194713,13.8871026 C88.840477,13.8871026 85.9131149,10.8239744 85.9131149,7.03805128 L85.9131149,7.03805128 Z M96.9231034,7.03805128 L96.9231034,7.00035897 C96.9231034,4.71728205 95.2612184,2.81417949 92.9194713,2.81417949 C90.5779023,2.81417949 88.9537874,4.67887179 88.9537874,6.96194872 L88.9537874,7.00035897 C88.9537874,9.28325641 90.6156724,11.1852821 92.9572414,11.1852821 C95.2989885,11.1852821 96.9231034,9.32112821 96.9231034,7.03805128 L96.9231034,7.03805128 Z" id="Fill-6"></path>
                    <path d="M104.973126,0.341205128 L111.016167,0.341205128 C112.697115,0.341205128 114.000006,0.817025641 114.868718,1.69184615 C115.605057,2.43420513 116.001822,3.4804359 116.001822,4.73576923 L116.001822,4.77417949 C116.001822,6.92353846 114.849655,8.27489744 113.169063,8.90220513 L116.398408,13.6587949 L112.999276,13.6587949 L110.166339,9.39723077 L107.881425,9.39723077 L107.881425,13.6587949 L104.973126,13.6587949 L104.973126,0.341205128 L104.973126,0.341205128 Z M110.827316,6.80974359 C112.243874,6.80974359 113.055753,6.04871795 113.055753,4.92638462 L113.055753,4.88797436 C113.055753,3.63264103 112.18704,2.98558974 110.770661,2.98558974 L107.881425,2.98558974 L107.881425,6.80974359 L110.827316,6.80974359 L110.827316,6.80974359 Z" id="Fill-7"></path>
                    <path d="M122.268098,0.341205128 L125.176397,0.341205128 L125.176397,6.16251282 L130.539575,0.341205128 L134.052195,0.341205128 L128.670132,5.99182051 L134.297523,13.6587949 L130.803966,13.6587949 L126.706086,7.98897436 L125.176397,9.58766667 L125.176397,13.6587949 L122.268098,13.6587949 L122.268098,0.341205128" id="Fill-8"></path>
                    <path d="M137.990799,11.7185385 L139.709517,9.6445641 C140.899098,10.6338974 142.145333,11.2619231 143.656138,11.2619231 C144.846075,11.2619231 145.563351,10.7861026 145.563351,10.0058718 L145.563351,9.96764103 C145.563351,9.22582051 145.110109,8.84530769 142.900736,8.27489744 C140.238121,7.58997436 138.51958,6.84815385 138.51958,4.20323077 L138.51958,4.16535897 C138.51958,1.74874359 140.445856,0.151307692 143.146063,0.151307692 C145.072695,0.151307692 146.715517,0.760128205 148.056178,1.84405128 L146.545374,4.05102564 C145.374856,3.23310256 144.22269,2.73861538 143.108649,2.73861538 C141.994253,2.73861538 141.408816,3.25212821 141.408816,3.89882051 L141.408816,3.93705128 C141.408816,4.81205128 141.975546,5.09725641 144.26046,5.68741026 C146.942138,6.39153846 148.452764,7.36166667 148.452764,9.6824359 L148.452764,9.72066667 C148.452764,12.3650513 146.451126,13.8494103 143.599305,13.8494103 C141.597845,13.8494103 139.577144,13.1452821 137.990799,11.7185385" id="Fill-9"></path>
                    <path d="M151.773506,10.6146923 L154.832885,10.6146923 L154.832885,13.6587949 L151.773506,13.6587949 L151.773506,10.6146923 Z" id="Fill-10"></path>
                </g>
            </g>
        </g>
    </g>
</svg>

<svg xmlns="http://www.w3.org/2000/svg" width="155" height="14"><title>Justworks Logo</title><desc>Created with Sketch.</desc><g fill="none"><g fill="#223D68"><g><g><path d="M0 11.85L1.85 9.8c.75.83 1.5 1.33 2.4 1.33 1.1 0 1.8-.67 1.8-2.2V.32H9v8.72c0 1.58-.44 2.76-1.23 3.56-.8.83-2 1.25-3.44 1.25-2.06 0-3.42-.9-4.32-2"/><path d="M14.8 7.95V.35h2.9v7.53c0 2.16 1.1 3.3 2.86 3.3 1.78 0 2.86-1.1 2.86-3.2V.33h2.9v7.52c0 4.03-2.24 6-5.8 6-3.54 0-5.72-2-5.72-5.9"/><path d="M31.4 11.72l1.73-2.08c1.2 1 2.44 1.62 3.95 1.62 1.2 0 1.9-.47 1.9-1.25v-.03c0-.74-.45-1.12-2.66-1.7-2.66-.68-4.38-1.42-4.38-4.07v-.03c0-2.42 1.93-4.02 4.63-4.02 1.93 0 3.57.6 4.9 1.7l-1.5 2.2c-1.17-.82-2.32-1.3-3.44-1.3-1.1 0-1.7.5-1.7 1.15v.04c0 .87.57 1.16 2.85 1.75 2.7.7 4.2 1.66 4.2 3.98v.04c0 2.65-2 4.13-4.86 4.13-2 0-4.02-.7-5.6-2.13"/><path d="M50.84 3.04h-4.02V.34h10.95v2.7h-4.02v10.62h-2.9V3.04"/><path d="M62 .34h3.13l2.74 9.02L70.83.3h2.5l2.96 9.06L79.02.34h3.04l-4.5 13.4h-2.54l-3-8.7-2.97 8.7h-2.53L62 .35"/><path d="M85.9 7.04V7c0-3.8 2.98-6.9 7.06-6.9s7 3.08 7 6.86V7c0 3.8-2.96 6.9-7.04 6.9s-7-3.08-7-6.86zm11.02 0V7c0-2.28-1.66-4.2-4-4.2s-3.97 1.88-3.97 4.16V7c0 2.28 1.67 4.2 4 4.2 2.35 0 3.97-1.88 3.97-4.16z"/><path d="M104.97.34h6.05c1.68 0 2.98.48 3.85 1.35.74.73 1.13 1.78 1.13 3.04v.03c0 2.15-1.15 3.5-2.83 4.13l3.23 4.76H113l-2.83-4.26h-2.3v4.26h-2.9V.34zm5.86 6.47c1.4 0 2.23-.75 2.23-1.87V4.9c0-1.27-.87-1.9-2.3-1.9h-2.88v3.8h2.95z"/><path d="M122.27.34h2.9v5.82l5.37-5.82h3.5L128.68 6l5.63 7.66h-3.5L126.7 8l-1.52 1.6v4.06h-2.9V.34"/><path d="M138 11.72l1.7-2.08c1.2 1 2.45 1.62 3.96 1.62 1.2 0 1.9-.47 1.9-1.25v-.03c0-.74-.45-1.12-2.66-1.7-2.66-.68-4.38-1.42-4.38-4.07v-.03c0-2.42 1.93-4.02 4.63-4.02 1.92 0 3.57.6 4.9 1.7l-1.5 2.2c-1.18-.82-2.33-1.3-3.44-1.3-1.1 0-1.7.5-1.7 1.15v.04c0 .87.58 1.16 2.86 1.75 2.68.7 4.2 1.66 4.2 3.98v.04c0 2.65-2 4.13-4.86 4.13-2 0-4.02-.7-5.6-2.13"/><path d="M151.77 10.6h3.06v3.06h-3.06V10.6z"/></g></g></g></g></svg>
